X: 11
T:Rhubarb Sandwich
% Nottingham Music Database
S:via PR
M:4/4
L:1/4
K:G
"G"G3/2A/2 Bd|"G"gf ed|"Am"eA AB|"D7"cd/2c/2 BA|"G"G3/2A/2 Bd|"Em"gf ed|\
"Am"ea "D7"ef|"G"g4::
"Am"ae ae|"Am"ae e3/2f/2|"G"gd gd|"G"gd d3/2^g/2|"Am"ae ae|"Am"ae e3/2f/2|\
"G"ge "Em"dB|"Am"A2 A2:|


